X: 25253
T: Man From Glountane, The
R: hornpipe
M: 4/4
K: Dmajor
AG|FDFA dAFA|(3(Bcd) ed cBAG|FDFA dAFA|(3(Bcd) AF E2 AF|
FDFA dAFA|(3(Bcd) ed cBAG|FDFA BGEC|D2 D>D D2:|
|:(3(Bcd)|e2 ed e2f2|e~aaa gedB|(3(cBA) FA dAFA|(3(Bcd) AF E2 AG|
FDFA dAFA|(3(Bcd) ed cBAG|FDFA BGEC|D2 D>D D2:|

